X:1
T:Captain Byng
T:Captain Byng
T:Nathaniel Gow
C:Nathaniel Gow
L:1/8
Q:1/8=232
M:4/4
K:G
V:1 treble 
V:1
|: g | fd gd BG GB | cA ag fd ef | gf gd BG GB | cA dF G3 d | fd gd BG GB | cA ag fd ef | %7
 gf gd BG GB | cA dF G3 c | BG dG BG GB | cA eA cA Ac | BG dG BG GB | cA dF G3 c | BG dG BG GB | %14
 cA eA cA Ac | BG dB ec dB | cA dF G3 :| %17

